sources/images/svg/nav.svg

<svg width="29" height="24" viewBox="0 0 29 24" xmlns="http://www.w3.org/2000/svg"><path d="M0 0v4h29V0H0zm0 10v4h29v-4H0zm0 10v4h29v-4H0z" id="nav" fill="#fff" fill-rule="evenodd"/></svg>

<?xml version="1.0" encoding="UTF-8" standalone="no"?>
<svg width="29px" height="24px" viewBox="0 0 29 24" version="1.1" xmlns="http://www.w3.org/2000/svg" xmlns:xlink="http://www.w3.org/1999/xlink" xmlns:sketch="http://www.bohemiancoding.com/sketch/ns">
    <!-- Generator: Sketch 3.0.4 (8053) - http://www.bohemiancoding.com/sketch -->
    <title>nav</title>
    <desc>Created with Sketch.</desc>
    <defs></defs>
    <g id="Page-1" stroke="none" stroke-width="1" fill="none" fill-rule="evenodd" sketch:type="MSPage">
        <path d="M0,0 L0,4 L29,4 L29,0 L0,0 Z M0,10 L0,14 L29,14 L29,10 L0,10 Z M0,20 L0,24 L29,24 L29,20 L0,20 Z" id="nav" fill="#FFFFFF" sketch:type="MSShapeGroup"></path>
    </g>
</svg>
